X: 276
T: Beni Âteşlere Salan...
C: Zeki Arif Ataergin
O: Turkey
F: http://compmusic.upf.edu/node/140
N: sehnaz--sarki--curcuna--beni_ateslere--zeki_arif_ataergin
N: makam= sehnaz
N: form= sarki
N: usul= curcuna = 10/8
M: 10/8
L: 1/16
K: C _7/8B ^1/4f ^c ^g
Q: 1/4=180
%%MIDI tuningsystem comma53
z4 d2a4a4a6  | a4 =b2=c'2 b2a3ga6  | \
w:  Be ni  â teş  |  *  le re  *  sa *  lan   | 
z4 =b2{b}d'4=c'8a2  | =b4 a2g4a3g=f4-=fe  | 
w:  o  *  kap ka  |  ra   | 
dcd2 {=b}a2a4a2 =f2fe f2a2  | a3g =f2e2 d2c2 B2A6  | \
w:  *  *  *  *  si yah  göz  |  ler   SAZ  | 
z4 d2a4a4a6  | 
w:  Be ni  â teş  | 
a4 =b2=c'2 b2a3ga6  | z4 =b2{b}d'4=c'8a2  | \
w:  *  le re  *  sa *  lan   |  o  *  kap ka  | 
=b4 a2g4a3g=f4-=fe  | dcd2 =b2a2 g2ag =f2ag f2fe  | 
w:  ra   |  *  *  *  si yah  *  göz  | 
e8 a2=g2 ^3/4f2a6  | a=g^2/4fe d2a4ag a=bg2 g2^3/4f2  | \
w:  ler   SAZ  |  *  *  *  *  Be ni  çıl  | 
=g2a2 g4 ^3/4f2g2 =fee4ed  | 
w:  gın   | 
d/c/.d3 {a}=g2g2 =f2e2 d2f2 e2d2  | \
w:  *  *  *  *  gi bi  *  ya  | 
d8 e2d2 cBc6  | z4 a2a4a2 =f2{=g}f2 e2g2  | 
w:  kan   |  o  tat lı  *  *  söz  | 
{a}=g2=f2 e2d2 e2c2 B2A3.A.B.c  | \
w:  *  ler  *  *  *  *  *  *  *  SAZ  | 
d4 d2d2 c2{c}B2 A2=G2 c2BA  | 
w:  *  gü ler  *  *  yüz  | 
A8 a2=g2 ^3/4f2a6  | a=g^2/4fe d2a4ag a=bg2 g2^3/4f2  | \
w:  ler   SAZ  |  *  *  *  *  Be ni  çıl  | 
=g2a2 g4 ^3/4f2g2 =fee4ed  | 
w:  gın   | 
d/c/.d3 {a}=g2g2 =f2e2 d2f2 e2d2  | \
w:  *  *  *  *  gi bi  *  ya  | 
d8 e2d2 cBc6  | z4 a2a4a2 =f2{=g}f2 e2g2  | 
w:  kan   |  o  tat lı  *  *  söz  | 
{a}=g2=f2 e2d2 e2c2 B2A3.A.B.c  | \
w:  *  ler  *  *  *  *  *  *  *  SAZ  | 
d4 d2d2 c2{c}B2 A2=G2 c2BA  | 
w:  *  gü ler  *  *  yüz  | 
A8 e2c2 d2e6  | z4 d2e4e4e4e{f}d  | {e}d4 a2a2 {=b}=g2=f3ee6  | \
w:  ler   SAZ  |  Ha ya tım da   |  *  *  sa na  *  *  kan *  mak   | 
z4 =b2d'4=c'8a2  | 
w:  na sib  ol  | 
=b4 a2g4a3g=f4-=fe  | dcd2 =baa4{b}a2 =g2^3/4f2 e2f2  | \
w:  maz   |  *  *  *  i *  se  *  e  | 
=g4 {=b}a2g2 =f2e2 d2=c2 _2/4B2A2  | 
w:  ğer    | 
z4 d2e4e4e4e{f}d  | {e}d4 a2a2 {=b}=g2=f3ee6  | \
w:  Ha ya tım da   |  *  *  sa na  *  *  kan *  mak   | 
z4 =b2d'4=c'8a2  | =b4 a2g4a3g=f4-=fe  | 
w:  na sib  ol  |  maz   | 
dcd2 =baa4a2 =f2f3/2e/ f2a2  | a8 a2=g2 ^3/4f2a6  | \
w:  *  *  *  i *  se  e  |  ğer   SAZ  | 
a=g^2/4fe d2a4ag a=bg2 g2^3/4f2  | 
w:  *  *  *  *  Be ni  çıl  | 
=g2a2 g4 ^3/4f2g2 =fee4ed  | d/c/.d3 {a}=g2g2 =f2e2 d2f2 e2d2  | 
w:  gın   |  *  *  *  *  gi bi  *  ya  | 
d8 e2d2 cBc6  | z4 a2a4a2 =f2{=g}f2 e2g2  | \
w:  kan   |  o  tat lı  *  *  söz  | 
{a}=g2=f2 e2d2 e2c2 B2A3.A.B.c  | 
w:  *  ler  *  *  *  *  *  *  *  SAZ  | 
d4 d2d2 c2{c}B2 A2=G2 c2BA  | A8 a2=g2 ^3/4f2a6  | \
w:  *  gü ler  *  *  yüz  |  ler   SAZ  | 
a=g^2/4fe d2a4ag a=bg2 g2^3/4f2  | 
w:  *  *  *  *  Be ni  çıl  | 
=g2a2 g4 ^3/4f2g2 =fee4ed  | d/c/.d3 {a}=g2g2 =f2e2 d2f2 e2d2  | 
w:  gın   |  *  *  *  *  gi bi  *  ya  | 
d8 e2d2 cBc6  | z4 a2a4a2 =f2{=g}f2 e2g2  | \
w:  kan   |  o  tat lı  *  *  söz  | 
{a}=g2=f2 e2d2 e2c2 B2A3.A.B.c  | 
w:  *  ler  *  *  *  *  *  *  *  SAZ  | 
d4 d2d2 c2{c}B2 A2=G2 c2BA  | A8 |
w:  *  gü ler  *  *  yüz  |  ler    | 


